images/site-logo.svg

<svg width="124" height="24" viewBox="0 0 124 24" fill="none" xmlns="http://www.w3.org/2000/svg">
<path fill-rule="evenodd" clip-rule="evenodd" d="M88.4277 4.57143C89.3376 4.57143 90.0408 4.35611 90.5371 3.92547C91.0335 3.49482 91.2817 2.94824 91.2817 2.28571C91.2817 1.60663 91.0418 1.0559 90.562 0.63354C90.0822 0.21118 89.3707 0 88.4277 0C87.4846 0 86.7732 0.21118 86.2934 0.63354C85.8136 1.0559 85.5737 1.60663 85.5737 2.28571C85.5737 2.94824 85.8219 3.49482 86.3182 3.92547C86.8145 4.35611 87.5177 4.57143 88.4277 4.57143ZM9.92693 17.6273C8.85151 18.3478 7.49483 18.7081 5.85689 18.7081C2.41555 18.7081 0.463257 17.3085 0 14.5093L3.7226 13.6646C3.95423 14.7246 4.66566 15.2547 5.85689 15.2547C6.66759 15.2547 7.07294 15.0393 7.07294 14.6087C7.07294 14.4596 7.01917 14.3395 6.91162 14.2484C6.80408 14.1573 6.56832 14.0455 6.20433 13.913L4.71529 13.3665L4.2934 13.2174C3.99559 13.118 3.75982 13.0311 3.5861 12.9565C3.41238 12.882 3.16007 12.7619 2.82917 12.5963C2.49828 12.4306 2.22529 12.2526 2.0102 12.0621C1.79512 11.8716 1.57176 11.648 1.34014 11.3913C1.10851 11.1346 0.934786 10.8364 0.818972 10.4969C0.703158 10.1573 0.64525 9.78882 0.64525 9.3913C0.64525 8.11594 1.14987 7.08075 2.15911 6.28571C3.16834 5.49068 4.43403 5.09317 5.95616 5.09317C8.50407 5.09317 10.2247 6.2029 11.1182 8.42236L7.42038 9.46584C7.08948 8.77019 6.58486 8.42236 5.90652 8.42236C5.36054 8.42236 5.08755 8.6294 5.08755 9.04348C5.08755 9.19255 5.15373 9.31677 5.28609 9.41615C5.41845 9.51553 5.6418 9.61491 5.95616 9.71429L7.39556 10.3106C10.0758 11.2381 11.4573 12.6294 11.5401 14.4845C11.5401 15.8592 11.0023 16.9068 9.92693 17.6273ZM21.116 16.8199C20.3384 18.0787 19.1306 18.7081 17.4927 18.7081C14.465 18.7081 12.9511 16.8116 12.9511 13.0186V5.36646H18.0635V12.5217C18.0635 13.9959 18.5764 14.7329 19.6021 14.7329C20.6114 14.7329 21.116 13.9959 21.116 12.5217V5.36646H26.2284V18.4348H21.116V16.8199ZM33.5956 18.4348V11.2795C33.5956 9.80538 34.1002 9.06832 35.1094 9.06832C36.1352 9.06832 36.6481 9.80538 36.6481 11.2795V18.4348H41.7605V10.7826C41.7605 6.98965 40.2466 5.09317 37.2189 5.09317C35.581 5.09317 34.3732 5.72257 33.5956 6.98137V5.36646H28.4832V18.4348H33.5956ZM48.9788 11.2795V18.4348H43.8664V5.36646H48.9788V6.98137C49.7564 5.72257 50.9641 5.09317 52.6021 5.09317C55.6298 5.09317 57.1437 6.98965 57.1437 10.7826V18.4348H52.0313V11.2795C52.0313 9.80538 51.5184 9.06832 50.4926 9.06832C49.4834 9.06832 48.9788 9.80538 48.9788 11.2795ZM64.9576 24L73.2466 5.36646H67.9108L65.3795 12.0497L63.1211 5.36646H57.5372L62.9722 17.1677L59.9445 24H64.9576ZM82.6984 17.6273C81.623 18.3478 80.2663 18.7081 78.6284 18.7081C75.187 18.7081 73.2347 17.3085 72.7715 14.5093L76.4941 13.6646C76.7257 14.7246 77.4371 15.2547 78.6284 15.2547C79.4391 15.2547 79.8444 15.0393 79.8444 14.6087C79.8444 14.4596 79.7906 14.3395 79.6831 14.2484C79.5756 14.1573 79.3398 14.0455 78.9758 13.913L77.4868 13.3665L77.0649 13.2174C76.7671 13.118 76.5313 13.0311 76.3576 12.9565C76.1839 12.882 75.9316 12.7619 75.6007 12.5963C75.2698 12.4306 74.9968 12.2526 74.7817 12.0621C74.5666 11.8716 74.3432 11.648 74.1116 11.3913C73.88 11.1346 73.7063 10.8364 73.5905 10.4969C73.4746 10.1573 73.4167 9.78882 73.4167 9.3913C73.4167 8.11594 73.9214 7.08075 74.9306 6.28571C75.9398 5.49068 77.2055 5.09317 78.7276 5.09317C81.2756 5.09317 82.9962 6.2029 83.8896 8.42236L80.1919 9.46584C79.861 8.77019 79.3563 8.42236 78.678 8.42236C78.132 8.42236 77.859 8.6294 77.859 9.04348C77.859 9.19255 77.9252 9.31677 78.0576 9.41615C78.1899 9.51553 78.4133 9.61491 78.7276 9.71429L80.167 10.3106C82.8473 11.2381 84.2288 12.6294 84.3115 14.4845C84.3115 15.8592 83.7738 16.9068 82.6984 17.6273ZM90.9839 5.36646V18.4348H85.8715V5.36646H90.9839ZM98.7233 18.7081C100.461 18.7081 101.701 18.0787 102.446 16.8199V18.4348H107.558V0.47205H102.446V7.00621C101.701 5.73085 100.461 5.09317 98.7233 5.09317C96.9696 5.09317 95.5095 5.73499 94.3431 7.01863C93.1766 8.30228 92.5934 9.92961 92.5934 11.9006C92.5934 13.8716 93.1766 15.499 94.3431 16.7826C95.5095 18.0663 96.9696 18.7081 98.7233 18.7081ZM98.3635 13.9876C98.8019 14.5342 99.3851 14.8075 100.113 14.8075C100.841 14.8075 101.424 14.5342 101.863 13.9876C102.301 13.441 102.52 12.7453 102.52 11.9006C102.52 11.0559 102.301 10.3602 101.863 9.81366C101.424 9.26708 100.841 8.99379 100.113 8.99379C99.3851 8.99379 98.7978 9.26708 98.3511 9.81366C97.9209 10.3602 97.7058 11.0559 97.7058 11.9006C97.7058 12.7453 97.925 13.441 98.3635 13.9876ZM116.812 18.7081C119.409 18.7081 121.436 17.9545 122.892 16.4472L120.782 13.6149C119.74 14.4596 118.565 14.882 117.258 14.882C116.266 14.882 115.459 14.6584 114.839 14.2112C114.218 13.764 113.908 13.3333 113.908 12.9193H123.512C123.595 12.6211 123.636 12.2319 123.636 11.7516C123.636 9.69772 122.962 8.07453 121.614 6.88199C120.265 5.68944 118.541 5.09317 116.439 5.09317C114.189 5.09317 112.411 5.76398 111.104 7.10559C109.797 8.4472 109.143 10.0621 109.143 11.9503C109.143 13.8882 109.834 15.499 111.215 16.7826C112.597 18.0663 114.462 18.7081 116.812 18.7081ZM114.702 9.15528C114.206 9.47826 113.941 9.94617 113.908 10.559H119.02C118.987 9.96273 118.723 9.49897 118.226 9.1677C117.73 8.83644 117.143 8.67081 116.464 8.67081C115.786 8.67081 115.198 8.8323 114.702 9.15528Z" fill="white"/>
</svg>

<svg width="124" height="24" fill="none" xmlns="http://www.w3.org/2000/svg"><path fill-rule="evenodd" clip-rule="evenodd" d="M88.428 4.571c.91 0 1.613-.215 2.11-.646.496-.43.744-.977.744-1.64 0-.678-.24-1.23-.72-1.651C90.082.21 89.371 0 88.428 0c-.943 0-1.655.211-2.135.634-.48.422-.72.973-.72 1.652 0 .662.249 1.209.745 1.64.496.43 1.2.645 2.11.645ZM9.927 17.627c-1.075.72-2.432 1.081-4.07 1.081-3.441 0-5.394-1.4-5.857-4.199l3.723-.844c.231 1.06.943 1.59 2.134 1.59.81 0 1.216-.216 1.216-.646 0-.15-.054-.27-.161-.36-.108-.092-.344-.204-.708-.336l-1.489-.546-.422-.15a9.483 9.483 0 0 1-.707-.26 15.497 15.497 0 0 1-.757-.36 3.793 3.793 0 0 1-.819-.535 8.53 8.53 0 0 1-.67-.67 2.546 2.546 0 0 1-.521-.895A3.404 3.404 0 0 1 .645 9.39c0-1.275.505-2.31 1.514-3.105 1.01-.795 2.275-1.193 3.797-1.193 2.548 0 4.269 1.11 5.162 3.33L7.42 9.465c-.33-.696-.835-1.044-1.513-1.044-.546 0-.82.207-.82.621 0 .15.067.274.2.373.131.1.355.199.67.298l1.439.597c2.68.927 4.061 2.318 4.144 4.174 0 1.374-.538 2.422-1.613 3.142Zm11.189-.807c-.778 1.259-1.985 1.888-3.623 1.888-3.028 0-4.542-1.896-4.542-5.69V5.367h5.113v7.156c0 1.474.512 2.21 1.538 2.21 1.01 0 1.514-.736 1.514-2.21V5.366h5.112v13.069h-5.112V16.82Zm12.48 1.615V11.28c0-1.475.504-2.212 1.513-2.212 1.026 0 1.54.737 1.54 2.212v7.155h5.111v-7.652c0-3.793-1.513-5.69-4.541-5.69-1.638 0-2.846.63-3.623 1.888V5.366h-5.113v13.069h5.113Zm15.383-7.155v7.155h-5.113V5.366h5.113v1.615c.777-1.258 1.985-1.888 3.623-1.888 3.028 0 4.542 1.897 4.542 5.69v7.652H52.03V11.28c0-1.475-.513-2.212-1.538-2.212-1.01 0-1.514.737-1.514 2.212ZM64.958 24l8.289-18.634H67.91l-2.532 6.684-2.258-6.684h-5.584l5.435 11.802L59.944 24h5.014Zm17.74-6.373c-1.075.72-2.432 1.081-4.07 1.081-3.441 0-5.393-1.4-5.856-4.199l3.722-.844c.232 1.06.943 1.59 2.134 1.59.811 0 1.216-.216 1.216-.646a.45.45 0 0 0-.16-.36c-.108-.092-.344-.204-.708-.336l-1.49-.546-.421-.15a9.481 9.481 0 0 1-.707-.26 15.507 15.507 0 0 1-.757-.36 3.793 3.793 0 0 1-.82-.535 8.523 8.523 0 0 1-.67-.67 2.546 2.546 0 0 1-.52-.895 3.402 3.402 0 0 1-.174-1.106c0-1.275.504-2.31 1.514-3.105 1.009-.795 2.275-1.193 3.797-1.193 2.548 0 4.268 1.11 5.162 3.33l-3.698 1.043c-.331-.696-.836-1.044-1.514-1.044-.546 0-.819.207-.819.621 0 .15.066.274.199.373.132.1.355.199.67.298l1.439.597c2.68.927 4.062 2.318 4.144 4.174 0 1.374-.537 2.422-1.613 3.142Zm8.286-12.26v13.068h-5.112V5.366h5.112Zm7.74 13.341c1.737 0 2.977-.63 3.722-1.888v1.615h5.112V.472h-5.112v6.534c-.745-1.275-1.985-1.913-3.723-1.913-1.753 0-3.213.642-4.38 1.926-1.166 1.283-1.75 2.91-1.75 4.882 0 1.97.584 3.598 1.75 4.882 1.166 1.283 2.627 1.925 4.38 1.925Zm-.36-4.72c.438.546 1.021.82 1.749.82.728 0 1.311-.274 1.75-.82.438-.547.657-1.243.657-2.087 0-.845-.219-1.54-.657-2.087-.439-.547-1.022-.82-1.75-.82s-1.315.273-1.762.82c-.43.546-.645 1.242-.645 2.087 0 .844.219 1.54.657 2.087Zm18.448 4.72c2.597 0 4.624-.753 6.08-2.26l-2.11-2.833c-1.042.845-2.217 1.267-3.524 1.267-.992 0-1.799-.224-2.419-.67-.621-.448-.931-.879-.931-1.293h9.604c.083-.298.124-.687.124-1.167 0-2.054-.674-3.677-2.022-4.87-1.349-1.193-3.073-1.789-5.175-1.789-2.25 0-4.028.671-5.335 2.013-1.307 1.341-1.961 2.956-1.961 4.844 0 1.938.691 3.549 2.072 4.833 1.382 1.283 3.247 1.925 5.597 1.925Zm-2.11-9.553c-.496.323-.761.791-.794 1.404h5.112a1.701 1.701 0 0 0-.794-1.391c-.496-.332-1.083-.497-1.762-.497-.678 0-1.266.161-1.762.484Z" fill="#fff"/></svg>
